icons/Nuclear akwicons.svg

<svg width="16" height="16" viewBox="0 0 16 16" fill="none" xmlns="http://www.w3.org/2000/svg">
<g clip-path="url(#clip0_4_670)">
<path d="M8.63721 15.6728H0.701773C0.485843 15.6728 0.323895 15.5648 0.161948 15.4568C0.0539826 15.2949 0 15.079 0 14.917C0 14.863 1.07965 10.2205 1.34956 8.70903C1.51151 7.5754 1.78142 4.22848 1.78142 4.1745C1.83541 3.79662 2.1593 3.52671 2.4832 3.52671H6.74782C7.01773 3.52671 7.28764 3.74264 7.34163 4.01255C7.34163 4.06653 7.66552 7.46743 7.88145 8.54708C8.15136 10.1126 9.285 14.7551 9.33898 14.8091C9.39296 15.025 9.33898 15.2409 9.17703 15.4029C9.06907 15.5648 8.85314 15.6728 8.63721 15.6728V15.6728ZM2.53718 3.90458C2.37523 3.90458 2.26727 4.01255 2.21328 4.1745C2.21328 4.28246 1.94337 7.5754 1.78142 8.70903C1.51151 10.2745 0.43186 14.917 0.43186 14.971C0.43186 15.025 0.43186 15.133 0.485843 15.1869C0.539825 15.2409 0.593808 15.2949 0.701773 15.2949H8.69119C8.79915 15.2949 8.85314 15.2409 8.9611 15.1869C9.06907 15.133 9.06907 15.025 9.01508 14.917C9.01508 14.863 7.88145 10.2205 7.55756 8.65505C7.34163 7.52142 7.07171 4.22848 7.01773 4.06653C7.01773 4.01255 6.90977 3.90458 6.8018 3.90458H2.53718V3.90458ZM15.385 12.5418H9.50093C9.33898 12.5418 9.17703 12.4878 9.06907 12.3259C8.9611 12.2179 8.90712 12.0559 8.9611 11.894C8.9611 11.84 9.77084 8.43912 9.93279 7.30549C10.0408 6.49575 10.2567 4.01255 10.2567 3.95857C10.3107 3.63467 10.5266 3.47272 10.8505 3.47272H13.9815C14.2514 3.47272 14.4133 3.63467 14.4673 3.90458C14.4673 3.90458 14.5213 4.44441 14.5753 5.0922C14.5753 5.20017 14.5213 5.30813 14.4133 5.30813C14.3054 5.30813 14.1974 5.25415 14.1974 5.14618C14.1434 4.49839 14.0894 3.95857 14.0894 3.95857C14.0894 3.90459 14.0355 3.90458 13.9815 3.90458H10.8505C10.7425 3.90458 10.6885 3.95857 10.6885 4.06653C10.6885 4.1745 10.4726 6.54973 10.3646 7.41345C10.1487 8.54708 9.39296 11.894 9.39296 12.002C9.39296 12.0559 9.39296 12.1099 9.44694 12.1099C9.50093 12.1099 9.50093 12.1639 9.55491 12.1639H15.385C15.439 12.1639 15.493 12.1099 15.547 12.1099C15.547 12.1099 15.601 12.0559 15.601 11.948C15.547 11.84 14.7372 8.4931 14.5213 7.35947C14.5213 7.2515 14.5753 7.14354 14.6833 7.14354C14.7912 7.14354 14.8992 7.19752 14.8992 7.30549C15.1151 8.43912 15.9248 11.894 15.9788 11.894C16.0328 12.0559 15.9788 12.2719 15.8709 12.3798C15.7089 12.4878 15.547 12.5418 15.385 12.5418V12.5418Z" fill="#3D3D3D"/>
<path d="M2.53719 3.90464C2.42922 3.90464 2.32126 3.79668 2.32126 3.68871C2.32126 3.58075 2.42922 3.47278 2.53719 3.47278C3.40091 3.47278 4.0487 3.25685 4.53454 2.82499C4.80445 2.60906 4.91242 2.33915 5.07437 2.06923C5.23632 1.79932 5.39826 1.47543 5.72216 1.15153C6.208 0.665688 6.85579 0.395776 7.71951 0.341793C7.82748 0.341793 7.93544 0.395776 7.93544 0.503741C7.93544 0.611706 7.88146 0.719671 7.77349 0.719671C7.07172 0.773653 6.47791 1.04357 6.04605 1.42144C5.77614 1.69136 5.61419 1.96127 5.45225 2.23118C5.2903 2.50109 5.12835 2.82499 4.80445 3.0949C4.26463 3.63473 3.50887 3.90464 2.53719 3.90464V3.90464ZM4.91242 3.90464C4.80446 3.90464 4.69649 3.79668 4.69649 3.68871C4.69649 3.58075 4.80446 3.47278 4.91242 3.47278C5.45225 3.47278 5.88411 3.31083 6.15402 3.0949C6.31597 2.93295 6.36995 2.82499 6.47791 2.60906C6.58588 2.44711 6.69384 2.23118 6.90977 2.01525C7.23367 1.69136 7.66553 1.52941 8.20536 1.47543C8.31332 1.47543 8.42129 1.52941 8.42129 1.63737C8.42129 1.74534 8.3673 1.8533 8.25934 1.8533C7.82748 1.90729 7.4496 2.06923 7.17969 2.28516C7.01774 2.44711 6.90977 2.60906 6.80181 2.77101C6.69384 2.98694 6.58588 3.14888 6.36995 3.36481C6.10004 3.74269 5.56021 3.90464 4.91242 3.90464ZM10.9045 3.90464C10.7965 3.90464 10.7425 3.79668 10.7425 3.68871C10.7425 3.58075 10.8505 3.47278 10.9045 3.47278C11.4983 3.47278 11.9841 3.31083 12.308 2.98694C12.47 2.82499 12.5779 2.60906 12.6859 2.39313C12.7939 2.1772 12.9018 1.90729 13.1717 1.69136C13.5496 1.31348 14.0355 1.09755 14.6293 1.04357C14.7372 1.04357 14.8452 1.09755 14.8452 1.20551C14.8452 1.31348 14.7912 1.42144 14.6833 1.42144C14.1974 1.47543 13.7656 1.69136 13.4417 1.96127C13.2257 2.1772 13.1178 2.33915 13.0638 2.55508C12.9558 2.77101 12.8479 2.98694 12.6319 3.25685C12.1461 3.68871 11.6063 3.90464 10.9045 3.90464V3.90464Z" fill="#3D3D3D"/>
<path d="M12.416 3.90466C12.308 3.90466 12.2001 3.79669 12.2001 3.68873C12.2001 3.58076 12.308 3.4728 12.416 3.4728C12.7939 3.4728 13.1178 3.36483 13.3337 3.20288C13.4417 3.09492 13.4956 2.98695 13.6036 2.87899C13.6576 2.71704 13.7656 2.55509 13.9275 2.39315C14.1974 2.12323 14.5213 2.01527 14.9532 1.96128C15.0611 1.96128 15.1691 2.01527 15.1691 2.12323C15.1691 2.2312 15.1151 2.33916 15.0072 2.33916C14.6833 2.39314 14.4133 2.50111 14.1974 2.66306C14.0895 2.77102 13.9815 2.87899 13.9275 3.04094C13.8735 3.20288 13.7656 3.36483 13.6036 3.52678C13.3337 3.74271 12.9018 3.90466 12.416 3.90466V3.90466ZM7.07172 4.93032H1.99736C1.8894 4.93032 1.78143 4.82236 1.78143 4.71439C1.78143 4.60643 1.8894 4.49846 1.99736 4.49846H7.07172C7.17969 4.49846 7.28765 4.60643 7.28765 4.71439C7.28765 4.82236 7.17969 4.93032 7.07172 4.93032ZM14.2514 4.93032H10.4726C10.3647 4.93032 10.2567 4.82236 10.2567 4.71439C10.2567 4.60643 10.3647 4.49846 10.4726 4.49846H14.2514C14.3594 4.49846 14.4673 4.60643 14.4673 4.71439C14.4673 4.82236 14.3594 4.93032 14.2514 4.93032Z" fill="#3D3D3D"/>
</g>
<defs>
<clipPath id="clip0_4_670">
<rect width="16" height="16" fill="white"/>
</clipPath>
</defs>
</svg>

<svg xmlns="http://www.w3.org/2000/svg" width="16" height="16" fill="currentColor" class="si si-Nuclear akwicons" viewBox="0 0 16 16">
  <g clip-path="url(#a)">
    <path d="M8.637 15.673H.702c-.216 0-.378-.108-.54-.216a1.04 1.04 0 0 1-.162-.54c0-.054 1.08-4.696 1.35-6.208.162-1.134.431-4.48.431-4.534.054-.378.378-.648.702-.648h4.265c.27 0 .54.216.594.486 0 .054.324 3.454.54 4.534.27 1.566 1.403 6.208 1.457 6.262a.61.61 0 0 1-.162.594.67.67 0 0 1-.54.27m-6.1-11.768c-.162 0-.27.108-.324.27 0 .107-.27 3.4-.432 4.534-.27 1.566-1.35 6.208-1.35 6.262s0 .162.055.216c.054.054.108.108.216.108h7.99c.107 0 .161-.054.27-.108.107-.054.107-.162.053-.27 0-.054-1.134-4.696-1.457-6.262-.216-1.134-.486-4.427-.54-4.588 0-.054-.108-.162-.216-.162zm12.848 8.637H9.501a.49.49 0 0 1-.432-.216.42.42 0 0 1-.108-.432c0-.054.81-3.455.972-4.589.108-.81.324-3.292.324-3.346.054-.324.27-.486.594-.486h3.13c.27 0 .432.162.486.432 0 0 .054.54.108 1.187 0 .108-.054.216-.162.216s-.216-.054-.216-.162c-.054-.648-.108-1.187-.108-1.187 0-.054-.053-.054-.107-.054H10.85q-.163 0-.163.162c0 .107-.215 2.483-.323 3.346-.216 1.134-.972 4.481-.972 4.589 0 .054 0 .108.054.108s.054.054.108.054h5.83c.054 0 .108-.054.162-.054 0 0 .054-.054.054-.162-.054-.108-.864-3.455-1.08-4.589 0-.107.054-.215.162-.215s.216.054.216.161c.216 1.134 1.026 4.589 1.08 4.589a.52.52 0 0 1-.108.486.87.87 0 0 1-.486.162"/>
    <path d="M2.537 3.905a.23.23 0 0 1-.216-.216c0-.108.108-.216.216-.216.864 0 1.512-.216 1.998-.648.27-.216.377-.486.54-.756.161-.27.323-.594.647-.917C6.208.666 6.856.396 7.72.342c.107 0 .215.054.215.162S7.881.72 7.773.72a2.95 2.95 0 0 0-1.727.701c-.27.27-.432.54-.594.81s-.324.594-.648.864q-.81.81-2.267.81m2.375 0a.23.23 0 0 1-.216-.216c0-.108.108-.216.216-.216.54 0 .972-.162 1.242-.378.162-.162.216-.27.324-.486.108-.162.216-.378.432-.594.324-.324.756-.486 1.295-.54.108 0 .216.054.216.162s-.054.216-.162.216c-.432.054-.81.216-1.08.432-.161.162-.27.324-.377.486a2.1 2.1 0 0 1-.432.594c-.27.378-.81.54-1.458.54m5.993 0c-.108 0-.162-.108-.162-.216s.107-.216.162-.216c.593 0 1.08-.162 1.403-.486.162-.162.27-.378.378-.594s.216-.486.486-.702q.567-.566 1.457-.647c.108 0 .216.054.216.162 0 .107-.054.215-.162.215a2.37 2.37 0 0 0-1.241.54c-.216.216-.324.378-.378.594-.108.216-.216.432-.432.702-.486.432-1.026.648-1.727.648"/>
    <path d="M12.416 3.905a.23.23 0 0 1-.216-.216c0-.108.108-.216.216-.216.378 0 .702-.108.918-.27.108-.108.162-.216.27-.324q.081-.243.324-.486c.27-.27.593-.378 1.025-.432.108 0 .216.054.216.162s-.054.216-.162.216a1.8 1.8 0 0 0-.81.324c-.107.108-.215.216-.27.378a1.3 1.3 0 0 1-.323.486c-.27.216-.702.378-1.188.378M7.072 4.93H1.997a.23.23 0 0 1-.216-.216c0-.108.108-.216.216-.216h5.075c.108 0 .216.108.216.216a.23.23 0 0 1-.216.216m7.18 0h-3.78a.23.23 0 0 1-.215-.216c0-.108.108-.216.216-.216h3.778c.108 0 .216.108.216.216a.23.23 0 0 1-.216.216"/>
  </g>
  <defs>
    <clipPath id="a">
      <path d="M0 0h16v16H0z"/>
    </clipPath>
  </defs>
</svg>
